projects/js-packages/social-logos/src/svg/medium-alt.svg

<svg height="24" viewBox="0 0 24 24" width="24" xmlns="http://www.w3.org/2000/svg"><path d="m7.42273124 6c3.27104436 0 5.92253006 2.68644025 5.92253006 6.0001012 0 3.313661-2.6516869 5.9998988-5.92253006 5.9998988-3.27084312 0-5.92273124-2.6868452-5.92273124-5.9998988 0-3.31305357 2.6516869-6.0001012 5.92273124-6.0001012zm9.45817966.35147036c1.6355221 0 2.9613656 2.528724 2.9613656 5.64863084h.0002012c0 3.1190971-1.3258435 5.6486309-2.9613656 5.6486309-1.6355222 0-2.9613656-2.5295338-2.9613656-5.6486309 0-3.119097 1.3256422-5.64863084 2.9611644-5.64863084zm4.5775706.58834844c.5750888 0 1.0415185 2.26552614 1.0415185 5.0602824 0 2.7939465-.4662285 5.0602825-1.0415185 5.0602825-.5752901 0-1.0413174-2.2657286-1.0413174-5.0602825 0-2.7945538.4662285-5.0602824 1.0413174-5.0602824z"/></svg>

<?xml version="1.0" encoding="UTF-8"?>
<svg width="24px" height="24px" viewBox="0 0 24 24" version="1.1" xmlns="http://www.w3.org/2000/svg" xmlns:xlink="http://www.w3.org/1999/xlink">
    <title>medium-alt</title>
    <g id="medium-alt" stroke="none" stroke-width="1" fill="none" fill-rule="evenodd">
        <path d="M7.42273124,6 C10.6937756,6 13.3452613,8.68644025 13.3452613,12.0001012 C13.3452613,15.3137622 10.6935744,18 7.42273124,18 C4.15188812,18 1.5,15.3131548 1.5,12.0001012 C1.5,8.68704763 4.1516869,6 7.42273124,6 Z M16.8809109,6.35147036 C18.516433,6.35147036 19.8422765,8.88019436 19.8422765,12.0001012 L19.8424777,12.0001012 C19.8424777,15.1191983 18.5166342,17.6487321 16.8811121,17.6487321 C15.2455899,17.6487321 13.9197465,15.1191983 13.9197465,12.0001012 C13.9197465,8.8810042 15.2453887,6.35147036 16.8809109,6.35147036 Z M21.4584815,6.9398188 C22.0335703,6.9398188 22.5,9.20534494 22.5,12.0001012 C22.5,14.7940477 22.0337715,17.0603837 21.4584815,17.0603837 C20.8831914,17.0603837 20.4171641,14.7946551 20.4171641,12.0001012 C20.4171641,9.2055474 20.8833926,6.9398188 21.4584815,6.9398188 Z" id="medium" fill="#000000" fill-rule="nonzero"></path>
    </g>
</svg>
